;FLAVOR:UltiGCode
;TIME:473       
;MATERIAL:493       
;MATERIAL2:0         

;Layer count: 58
;LAYER:0
M107
G0 F9000 X107.575 Y103.545 Z0.300
G0 X112.015 Y100.775
;TYPE:SKIRT
G1 F1200 X112.381 Y100.669 E0.04572
G1 X112.754 Y100.578 E0.09180
G1 X113.118 Y100.502 E0.13642
G1 X113.492 Y100.440 E0.18191
G1 X113.869 Y100.390 E0.22755
G1 X114.246 Y100.355 E0.27298
G1 X114.614 Y100.334 E0.31721
G1 X115.000 Y100.326 E0.36354
G1 X115.386 Y100.334 E0.40987
G1 X115.754 Y100.355 E0.45411
G1 X116.131 Y100.390 E0.49954
G1 X116.508 Y100.440 E0.54518
G1 X116.882 Y100.502 E0.59067
G1 X117.246 Y100.578 E0.63529
G1 X117.619 Y100.669 E0.68136
G1 X117.985 Y100.775 E0.72709
G1 X118.335 Y100.889 E0.77126
G1 X118.700 Y101.023 E0.81792
G1 X119.050 Y101.168 E0.86338
G1 X119.390 Y101.323 E0.90822
G1 X119.724 Y101.490 E0.95303
G1 X120.056 Y101.671 E0.99841
G1 X120.388 Y101.870 E1.04486
G1 X120.707 Y102.078 E1.09055
G1 X121.013 Y102.295 E1.13557
G1 X121.309 Y102.519 E1.18012
G1 X121.606 Y102.762 E1.22616
G1 X121.889 Y103.014 E1.27164
G1 X122.162 Y103.274 E1.31688
G1 X122.425 Y103.545 E1.36219
G1 X122.678 Y103.825 E1.40748
G1 X122.924 Y104.119 E1.45348
G1 X123.153 Y104.414 E1.49829
G1 X123.374 Y104.722 E1.54378
G1 X123.588 Y105.045 E1.59028
G1 X123.780 Y105.361 E1.63465
G1 X123.966 Y105.690 E1.68000
G1 X124.137 Y106.026 E1.72524
G1 X124.298 Y106.368 E1.77060
G1 X124.448 Y106.724 E1.81696
G1 X124.578 Y107.070 E1.86131
G1 X124.700 Y107.429 E1.90681
G1 X124.808 Y107.795 E1.95261
G1 X124.904 Y108.166 E1.99859
G1 X124.982 Y108.532 E2.04350
G1 X125.048 Y108.896 E2.08789
G1 X125.102 Y109.280 E2.13442
G1 X125.140 Y109.657 E2.17989
G1 X125.165 Y110.034 E2.22523
G1 X125.174 Y110.411 E2.27049
G1 X125.171 Y110.788 E2.31573
G1 X125.153 Y111.165 E2.36102
G1 X125.122 Y111.542 E2.40641
G1 X125.076 Y111.918 E2.45187
G1 X125.017 Y112.285 E2.49647
G1 X124.944 Y112.660 E2.54232
G1 X124.856 Y113.031 E2.58807
G1 X124.754 Y113.399 E2.63390
G1 X124.640 Y113.757 E2.67898
G1 X124.514 Y114.110 E2.72396
G1 X124.371 Y114.465 E2.76989
G1 X124.220 Y114.806 E2.81464
G1 X124.052 Y115.150 E2.86058
G1 X123.871 Y115.485 E2.90627
G1 X123.684 Y115.805 E2.95075
G1 X123.477 Y116.131 E2.99709
G1 X123.260 Y116.442 E3.04260
G1 X123.041 Y116.737 E3.08668
G1 X122.799 Y117.037 E3.13294
G1 X122.525 Y117.352 E3.18304
G1 X122.054 Y117.835 E3.26399
G1 X121.747 Y118.119 E3.31418
G1 X121.454 Y118.368 E3.36032
G1 X121.450 Y118.371 E3.36092
G1 X121.450 Y119.769 E3.52868
G1 X121.430 Y120.181 E3.57818
G1 X121.311 Y120.896 E3.66516
G1 X120.902 Y121.945 E3.80027
G1 X119.453 Y124.324 E4.13453
G1 X118.800 Y124.327 E4.21289
G1 X118.800 Y124.337 E4.21409
G1 X116.775 Y124.336 E4.45709
G1 X116.730 Y124.336 E4.46249
G1 X115.184 Y124.335 E4.64801
G1 X111.200 Y124.347 E5.12610
G1 X111.200 Y124.340 E5.12694
G1 X110.490 Y124.342 E5.21214
G1 X109.037 Y121.816 E5.56183
G1 X108.735 Y121.047 E5.66097
G1 X108.574 Y120.250 E5.75854
G1 X108.550 Y119.774 E5.81573
G1 X108.550 Y118.371 E5.98409
G1 X108.546 Y118.368 E5.98469
G1 X108.253 Y118.119 E6.03083
G1 X107.975 Y117.862 E6.07626
G1 X107.707 Y117.598 E6.12141
G1 X107.449 Y117.321 E6.16683
G1 X107.201 Y117.037 E6.21208
G1 X106.959 Y116.737 E6.25833
G1 X106.740 Y116.442 E6.30242
G1 X106.523 Y116.131 E6.34792
G1 X106.316 Y115.805 E6.39426
G1 X106.129 Y115.485 E6.43874
G1 X105.948 Y115.150 E6.48443
G1 X105.780 Y114.806 E6.53037
G1 X105.629 Y114.465 E6.57513
G1 X105.486 Y114.110 E6.62105
G1 X105.360 Y113.757 E6.66603
G1 X105.246 Y113.399 E6.71111
G1 X105.144 Y113.031 E6.75694
G1 X105.056 Y112.660 E6.80270
G1 X104.983 Y112.285 E6.84854
G1 X104.924 Y111.918 E6.89315
G1 X104.878 Y111.542 E6.93860
G1 X104.847 Y111.165 E6.98399
G1 X104.829 Y110.788 E7.02929
G1 X104.826 Y110.411 E7.07453
G1 X104.835 Y110.034 E7.11978
G1 X104.860 Y109.657 E7.16512
G1 X104.898 Y109.280 E7.21059
G1 X104.952 Y108.896 E7.25712
G1 X105.018 Y108.532 E7.30151
G1 X105.096 Y108.166 E7.34642
G1 X105.192 Y107.795 E7.39241
G1 X105.300 Y107.429 E7.43820
G1 X105.422 Y107.070 E7.48370
G1 X105.552 Y106.724 E7.52805
G1 X105.702 Y106.368 E7.57441
G1 X105.863 Y106.026 E7.61977
G1 X106.034 Y105.690 E7.66501
G1 X106.220 Y105.361 E7.71036
G1 X106.412 Y105.045 E7.75473
G1 X106.626 Y104.722 E7.80123
G1 X106.847 Y104.414 E7.84672
G1 X107.076 Y104.119 E7.89153
G1 X107.322 Y103.825 E7.93754
G1 X107.575 Y103.545 E7.98282
G1 X107.838 Y103.274 E8.02814
G1 X108.111 Y103.014 E8.07338
G1 X108.394 Y102.762 E8.11885
G1 X108.691 Y102.519 E8.16490
G1 X108.987 Y102.295 E8.20944
G1 X109.293 Y102.078 E8.25446
G1 X109.612 Y101.870 E8.30016
G1 X109.944 Y101.671 E8.34661
G1 X110.276 Y101.490 E8.39198
G1 X110.610 Y101.323 E8.43679
G1 X110.950 Y101.168 E8.48163
G1 X111.300 Y101.023 E8.52709
G1 X111.665 Y100.889 E8.57375
G1 X112.015 Y100.775 E8.61792
G0 F9000 X115.000 Y100.726
G1 F1200 X115.370 Y100.734 E8.66233
G1 X115.724 Y100.754 E8.70488
G1 X116.086 Y100.788 E8.74851
G1 X116.448 Y100.835 E8.79232
G1 X116.808 Y100.896 E8.83613
G1 X117.158 Y100.969 E8.87904
G1 X117.516 Y101.055 E8.92322
G1 X117.867 Y101.158 E8.96712
G1 X118.204 Y101.267 E9.00962
G1 X118.554 Y101.396 E9.05438
G1 X118.890 Y101.535 E9.09801
G1 X119.218 Y101.684 E9.14125
G1 X119.538 Y101.845 E9.18423
G1 X119.858 Y102.019 E9.22794
G1 X120.176 Y102.209 E9.27239
G1 X120.482 Y102.409 E9.31626
G1 X120.777 Y102.617 E9.35958
G1 X121.061 Y102.833 E9.40239
G1 X121.346 Y103.067 E9.44664
G1 X121.618 Y103.309 E9.49033
G1 X121.880 Y103.558 E9.53371
G1 X122.133 Y103.819 E9.57733
G1 X122.377 Y104.088 E9.62091
G1 X122.612 Y104.370 E9.66496
G1 X122.832 Y104.654 E9.70807
G1 X123.045 Y104.949 E9.75173
G1 X123.250 Y105.259 E9.79633
G1 X123.435 Y105.563 E9.83903
G1 X123.613 Y105.879 E9.88255
G1 X123.778 Y106.202 E9.92608
G1 X123.933 Y106.530 E9.96961
G1 X124.076 Y106.873 E10.01421
G1 X124.202 Y107.205 E10.05682
G1 X124.319 Y107.550 E10.10053
G1 X124.423 Y107.901 E10.14446
G1 X124.514 Y108.257 E10.18856
G1 X124.589 Y108.609 E10.23175
G1 X124.653 Y108.959 E10.27444
G1 X124.705 Y109.328 E10.31916
G1 X124.741 Y109.690 E10.36281
G1 X124.765 Y110.052 E10.40635
G1 X124.774 Y110.415 E10.44992
G1 X124.771 Y110.777 E10.49336
G1 X124.754 Y111.139 E10.53685
G1 X124.724 Y111.501 E10.58044
G1 X124.679 Y111.862 E10.62410
G1 X124.623 Y112.216 E10.66710
G1 X124.553 Y112.575 E10.71100
G1 X124.468 Y112.931 E10.75492
G1 X124.371 Y113.284 E10.79885
G1 X124.261 Y113.629 E10.84230
G1 X124.140 Y113.968 E10.88549
G1 X124.003 Y114.309 E10.92959
G1 X123.857 Y114.637 E10.97268
G1 X123.696 Y114.967 E11.01674
G1 X123.522 Y115.289 E11.06066
G1 X123.342 Y115.596 E11.10336
G1 X123.143 Y115.910 E11.14797
G1 X122.935 Y116.209 E11.19168
G1 X122.724 Y116.492 E11.23404
G1 X122.493 Y116.780 E11.27834
G1 X122.230 Y117.080 E11.32622
G1 X121.775 Y117.549 E11.40463
G1 X121.482 Y117.819 E11.45244
G1 X121.201 Y118.059 E11.49679
G1 X121.050 Y118.178 E11.51986
G1 X121.050 Y119.759 E11.70958
G1 X121.032 Y120.138 E11.75511
G1 X120.923 Y120.790 E11.83444
G1 X120.543 Y121.767 E11.96023
G1 X119.227 Y123.925 E12.26355
G1 X118.400 Y123.929 E12.36279
G1 X118.400 Y123.937 E12.36375
G1 X115.169 Y123.935 E12.75147
G1 X111.600 Y123.946 E13.17975
G1 X111.600 Y123.938 E13.18071
G1 X110.721 Y123.941 E13.28619
G1 X109.399 Y121.642 E13.60443
G1 X109.120 Y120.934 E13.69575
G1 X108.972 Y120.201 E13.78548
G1 X108.950 Y119.764 E13.83799
G1 X108.950 Y118.178 E14.02831
G1 X108.799 Y118.059 E14.05138
G1 X108.518 Y117.819 E14.09573
G1 X108.251 Y117.573 E14.13929
G1 X107.994 Y117.319 E14.18265
G1 X107.746 Y117.053 E14.22629
G1 X107.507 Y116.780 E14.26983
G1 X107.276 Y116.492 E14.31414
G1 X107.065 Y116.209 E14.35650
G1 X106.857 Y115.910 E14.40021
G1 X106.658 Y115.596 E14.44481
G1 X106.478 Y115.289 E14.48752
G1 X106.304 Y114.967 E14.53144
G1 X106.143 Y114.637 E14.57550
G1 X105.997 Y114.309 E14.61859
G1 X105.860 Y113.968 E14.66268
G1 X105.739 Y113.629 E14.70588
G1 X105.629 Y113.284 E14.74933
G1 X105.532 Y112.931 E14.79326
G1 X105.447 Y112.575 E14.83718
G1 X105.377 Y112.216 E14.88107
G1 X105.321 Y111.862 E14.92408
G1 X105.276 Y111.501 E14.96774
G1 X105.246 Y111.139 E15.01133
G1 X105.229 Y110.777 E15.05481
G1 X105.226 Y110.415 E15.09826
G1 X105.235 Y110.052 E15.14183
G1 X105.259 Y109.690 E15.18536
G1 X105.295 Y109.328 E15.22902
G1 X105.347 Y108.959 E15.27374
G1 X105.411 Y108.609 E15.31643
G1 X105.486 Y108.257 E15.35962
G1 X105.577 Y107.901 E15.40371
G1 X105.681 Y107.550 E15.44764
G1 X105.798 Y107.205 E15.49136
G1 X105.924 Y106.873 E15.53397
G1 X106.067 Y106.530 E15.57857
G1 X106.222 Y106.202 E15.62210
G1 X106.387 Y105.879 E15.66562
G1 X106.565 Y105.563 E15.70915
G1 X106.750 Y105.259 E15.75185
G1 X106.955 Y104.949 E15.79645
G1 X107.168 Y104.654 E15.84011
G1 X107.388 Y104.370 E15.88322
G1 X107.623 Y104.088 E15.92727
G1 X107.867 Y103.819 E15.97085
G1 X108.120 Y103.558 E16.01447
G1 X108.382 Y103.309 E16.05785
G1 X108.654 Y103.067 E16.10153
G1 X108.939 Y102.833 E16.14579
G1 X109.223 Y102.617 E16.18860
G1 X109.518 Y102.409 E16.23192
G1 X109.824 Y102.209 E16.27578
G1 X110.142 Y102.019 E16.32024
G1 X110.462 Y101.845 E16.36395
G1 X110.782 Y101.684 E16.40693
G1 X111.110 Y101.535 E16.45016
G1 X111.446 Y101.396 E16.49380
G1 X111.796 Y101.267 E16.53856
G1 X112.133 Y101.158 E16.58106
G1 X112.484 Y101.055 E16.62496
G1 X112.842 Y100.969 E16.66914
G1 X113.192 Y100.896 E16.71204
G1 X113.552 Y100.835 E16.75586
G1 X113.914 Y100.788 E16.79966
G1 X114.276 Y100.754 E16.84330
G1 X114.630 Y100.734 E16.88584
G1 X115.000 Y100.726 E16.93025
G0 F9000 X115.000 Y101.126
G1 F1200 X115.355 Y101.134 E16.97287
G1 X115.695 Y101.153 E17.01373
G1 X116.042 Y101.185 E17.05555
G1 X116.389 Y101.231 E17.09755
G1 X116.734 Y101.289 E17.13953
G1 X117.070 Y101.359 E17.18072
G1 X117.413 Y101.442 E17.22306
G1 X117.750 Y101.540 E17.26518
G1 X118.074 Y101.645 E17.30605
G1 X118.409 Y101.768 E17.34887
G1 X118.731 Y101.902 E17.39073
G1 X119.045 Y102.045 E17.43213
G1 X119.353 Y102.199 E17.47345
G1 X119.659 Y102.366 E17.51529
G1 X119.964 Y102.549 E17.55797
G1 X120.258 Y102.740 E17.60004
G1 X120.540 Y102.940 E17.64153
G1 X120.813 Y103.147 E17.68264
G1 X121.086 Y103.371 E17.72501
G1 X121.347 Y103.603 E17.76692
G1 X121.599 Y103.842 E17.80860
G1 X121.841 Y104.092 E17.85035
G1 X122.075 Y104.350 E17.89215
G1 X122.301 Y104.621 E17.93449
G1 X122.512 Y104.893 E17.97580
G1 X122.716 Y105.176 E18.01766
G1 X122.912 Y105.473 E18.06037
G1 X123.089 Y105.765 E18.10134
G1 X123.261 Y106.069 E18.14325
G1 X123.419 Y106.378 E18.18490
G1 X123.567 Y106.693 E18.22667
G1 X123.705 Y107.021 E18.26937
G1 X123.825 Y107.340 E18.31027
G1 X123.938 Y107.671 E18.35224
G1 X124.037 Y108.007 E18.39427
G1 X124.125 Y108.349 E18.43665
G1 X124.197 Y108.686 E18.47800
G1 X124.258 Y109.023 E18.51910
G1 X124.308 Y109.376 E18.56188
G1 X124.343 Y109.723 E18.60373
G1 X124.365 Y110.070 E18.64545
G1 X124.374 Y110.418 E18.68723
G1 X124.371 Y110.766 E18.72899
G1 X124.355 Y111.113 E18.77067
G1 X124.326 Y111.460 E18.81246
G1 X124.283 Y111.807 E18.85442
G1 X124.230 Y112.146 E18.89559
G1 X124.162 Y112.490 E18.93767
G1 X124.081 Y112.832 E18.97985
G1 X123.988 Y113.170 E19.02191
G1 X123.882 Y113.501 E19.06362
G1 X123.766 Y113.826 E19.10503
G1 X123.634 Y114.154 E19.14746
G1 X123.495 Y114.468 E19.18867
G1 X123.340 Y114.784 E19.23090
G1 X123.173 Y115.093 E19.27305
G1 X123.001 Y115.388 E19.31403
G1 X122.810 Y115.688 E19.35670
G1 X122.611 Y115.975 E19.39861
G1 X122.408 Y116.247 E19.43934
G1 X122.186 Y116.523 E19.48185
G1 X121.936 Y116.809 E19.52743
G1 X121.496 Y117.262 E19.60321
G1 X121.216 Y117.520 E19.64890
G1 X120.947 Y117.749 E19.69129
G1 X120.677 Y117.962 E19.73256
G1 X120.650 Y117.982 E19.73659
G1 X120.650 Y119.749 E19.94863
G1 X120.633 Y120.095 E19.99020
G1 X120.535 Y120.683 E20.06174
G1 X120.183 Y121.589 E20.17837
G1 X119.002 Y123.526 E20.45061
G1 X118.000 Y123.530 E20.57085
G1 X118.000 Y123.537 E20.57169
G1 X115.154 Y123.535 E20.91321
G1 X112.000 Y123.545 E21.29169
G1 X112.000 Y123.537 E21.29265
G1 X110.952 Y123.540 E21.41841
G1 X109.760 Y121.468 E21.70526
G1 X109.505 Y120.820 E21.78883
G1 X109.370 Y120.151 E21.87073
G1 X109.350 Y119.754 E21.91843
G1 X109.350 Y117.982 E22.13107
G1 X109.323 Y117.962 E22.13510
G1 X109.053 Y117.749 E22.17637
G1 X108.784 Y117.520 E22.21876
G1 X108.528 Y117.284 E22.26054
G1 X108.281 Y117.040 E22.30221
G1 X108.043 Y116.785 E22.34406
G1 X107.814 Y116.523 E22.38582
G1 X107.592 Y116.247 E22.42832
G1 X107.389 Y115.975 E22.46905
G1 X107.190 Y115.688 E22.51096
G1 X106.999 Y115.388 E22.55364
G1 X106.827 Y115.093 E22.59462
G1 X106.660 Y114.784 E22.63676
G1 X106.505 Y114.468 E22.67900
G1 X106.366 Y114.154 E22.72021
G1 X106.234 Y113.826 E22.76264
G1 X106.118 Y113.501 E22.80404
G1 X106.012 Y113.170 E22.84575
G1 X105.919 Y112.832 E22.88782
G1 X105.838 Y112.490 E22.92999
G1 X105.770 Y112.146 E22.97207
G1 X105.717 Y111.807 E23.01325
G1 X105.674 Y111.460 E23.05521
G1 X105.645 Y111.113 E23.09699
G1 X105.629 Y110.766 E23.13868
G1 X105.626 Y110.418 E23.18044
G1 X105.635 Y110.070 E23.22221
G1 X105.657 Y109.723 E23.26393
G1 X105.692 Y109.376 E23.30579
G1 X105.742 Y109.023 E23.34857
G1 X105.803 Y108.686 E23.38967
G1 X105.875 Y108.349 E23.43102
G1 X105.963 Y108.007 E23.47340
G1 X106.062 Y107.671 E23.51543
G1 X106.175 Y107.340 E23.55740
G1 X106.295 Y107.021 E23.59830
G1 X106.433 Y106.693 E23.64100
G1 X106.581 Y106.378 E23.68276
G1 X106.739 Y106.069 E23.72441
G1 X106.911 Y105.765 E23.76633
G1 X107.088 Y105.473 E23.80730
G1 X107.284 Y105.176 E23.85000
G1 X107.488 Y104.893 E23.89186
G1 X107.699 Y104.621 E23.93317
G1 X107.925 Y104.350 E23.97552
G1 X108.159 Y104.092 E24.01732
G1 X108.401 Y103.842 E24.05907
G1 X108.653 Y103.603 E24.10075
G1 X108.914 Y103.371 E24.14265
G1 X109.187 Y103.147 E24.18503
G1 X109.460 Y102.940 E24.22614
G1 X109.742 Y102.740 E24.26763
G1 X110.036 Y102.549 E24.30970
G1 X110.341 Y102.366 E24.35238
G1 X110.647 Y102.199 E24.39421
G1 X110.955 Y102.045 E24.43554
G1 X111.269 Y101.902 E24.47694
G1 X111.591 Y101.768 E24.51879
G1 X111.926 Y101.645 E24.56162
G1 X112.250 Y101.540 E24.60249
G1 X112.587 Y101.442 E24.64460
G1 X112.930 Y101.359 E24.68695
G1 X113.266 Y101.289 E24.72814
G1 X113.611 Y101.231 E24.77012
G1 X113.958 Y101.185 E24.81212
G1 X114.305 Y101.153 E24.85394
G1 X114.645 Y101.134 E24.89480
G1 X115.000 Y101.126 E24.93741
G10
G0 F9000 X114.790 Y104.932
;TYPE:WALL-INNER
G11
G1 F1200 X115.000 Y104.927 E24.96262
G1 X115.609 Y104.961 E25.03581
G1 X116.232 Y105.066 E25.11163
G1 X116.843 Y105.241 E25.18789
G1 X117.404 Y105.473 E25.26074
G1 X117.953 Y105.774 E25.33588
G1 X118.468 Y106.138 E25.41155
G1 X118.925 Y106.545 E25.48499
G1 X119.346 Y107.012 E25.56044
G1 X119.696 Y107.498 E25.63231
G1 X120.010 Y108.060 E25.70956
G1 X120.245 Y108.614 E25.78178
G1 X120.422 Y109.206 E25.85592
G1 X120.504 Y109.616 E25.90610
G1 X120.533 Y109.819 E25.93071
G1 X120.569 Y110.256 E25.98332
G1 X120.574 Y110.462 E26.00805
G1 X120.546 Y111.060 E26.07989
G1 X120.450 Y111.674 E26.15446
G1 X120.278 Y112.293 E26.23156
G1 X120.130 Y112.682 E26.28150
G1 X119.866 Y113.221 E26.35352
G1 X119.530 Y113.750 E26.42873
G1 X119.138 Y114.236 E26.50365
G1 X118.695 Y114.675 E26.57849
G1 X118.218 Y115.054 E26.65160
G1 X117.641 Y115.412 E26.73309
G1 X117.333 Y115.639 E26.77900
G1 X117.068 Y115.974 E26.83026
G1 X116.907 Y116.355 E26.87989
G1 X116.855 Y116.640 E26.91466
G1 X116.850 Y119.671 E27.27838
G1 X116.826 Y119.736 E27.28669
G1 X115.869 Y119.733 E27.40153
G1 X115.800 Y119.733 E27.40981
G1 X115.800 Y114.445 E28.04437
G1 X115.831 Y114.441 E28.04812
G1 X116.408 Y114.273 E28.12024
G1 X116.952 Y114.022 E28.19213
G1 X117.376 Y113.750 E28.25258
G1 X117.697 Y113.491 E28.30208
G1 X118.099 Y113.072 E28.37176
G1 X118.240 Y112.889 E28.39948
G1 X118.554 Y112.394 E28.46982
G1 X118.797 Y111.842 E28.54220
G1 X118.952 Y111.260 E28.61447
G1 X119.017 Y110.773 E28.67343
G1 X119.025 Y110.544 E28.70092
G1 X118.989 Y109.961 E28.77102
G1 X118.863 Y109.372 E28.84330
G1 X118.651 Y108.808 E28.91560
G1 X118.356 Y108.283 E28.98787
G1 X118.054 Y107.879 E29.04839
G1 X117.630 Y107.453 E29.12052
G1 X117.146 Y107.096 E29.19269
G1 X116.613 Y106.814 E29.26505
G1 X116.040 Y106.615 E29.33784
G1 X115.454 Y106.504 E29.40941
G1 X114.949 Y106.477 E29.47009
G1 X114.353 Y106.528 E29.54188
G1 X113.767 Y106.670 E29.61423
